libs/icons/src/svg/folder-group.svg

<svg width="16" height="16" viewBox="0 0 16 16" fill="none" xmlns="http://www.w3.org/2000/svg">
<g clip-path="url(#clip0_3_3326)">
<path fill-rule="evenodd" clip-rule="evenodd" d="M1 0C0.447716 0 0 0.447715 0 1V7.33333C0 8.4379 0.895431 9.33333 2 9.33333H5.33333V8H1.83333C1.55719 8 1.33333 7.77614 1.33333 7.5V1.33333H2.85008C2.98269 1.33333 3.10987 1.38601 3.20364 1.47978L4.09763 2.37377C4.28517 2.56131 4.53952 2.66667 4.80474 2.66667H8V5.33333H9.33333V2.33333C9.33333 1.78105 8.88562 1.33333 8.33333 1.33333H4.94281L3.90237 0.292894C3.71483 0.105357 3.46048 0 3.19526 0H1ZM7.66667 6.66667C7.11438 6.66667 6.66667 7.11439 6.66667 7.66667V14C6.66667 15.1046 7.5621 16 8.66667 16H14C15.1046 16 16 15.1046 16 14V9.00001C16 8.44772 15.5523 8.00001 15 8.00001H11.6095L10.569 6.95957C10.3815 6.77203 10.1271 6.66667 9.86193 6.66667H7.66667ZM8 14.1667V8.00001H9.51675C9.64936 8.00001 9.77654 8.05268 9.87031 8.14645L10.7643 9.04045C10.9518 9.22798 11.2062 9.33334 11.4714 9.33334H14.6667V14.1667C14.6667 14.4428 14.4428 14.6667 14.1667 14.6667H8.5C8.22386 14.6667 8 14.4428 8 14.1667Z" fill="#202327"/>
</g>
<defs>
<clipPath id="clip0_3_3326">
<rect width="16" height="16" fill="white"/>
</clipPath>
</defs>
</svg>

<svg xmlns="http://www.w3.org/2000/svg" viewBox="0 0 16 16" class="sageicon"><path fill-rule="evenodd" d="M1 0a1 1 0 0 0-1 1v6.333a2 2 0 0 0 2 2h3.333V8h-3.5a.5.5 0 0 1-.5-.5V1.333H2.85a.5.5 0 0 1 .354.147l.894.894a1 1 0 0 0 .707.293H8v2.666h1.333v-3a1 1 0 0 0-1-1h-3.39L3.903.293A1 1 0 0 0 3.194 0H1Zm6.667 6.667a1 1 0 0 0-1 1V14a2 2 0 0 0 2 2H14a2 2 0 0 0 2-2V9a1 1 0 0 0-1-1h-3.39l-1.041-1.04a1 1 0 0 0-.707-.293H7.667Zm.333 7.5V8h1.517a.5.5 0 0 1 .353.146l.894.894a1 1 0 0 0 .707.293h3.196v4.834a.5.5 0 0 1-.5.5H8.5a.5.5 0 0 1-.5-.5Z"/></svg>
